X:4
T:Peter Eat Your Heart Out
M:c
L:1/8
C:Bruce Thomson
N:Published with permission of Bruce Thomson
K:Am
(3EFG|:â€Amâ€A2A2c3B|ABAG EDEG|A2A2cAcd|
â€œEmâ€e6eg|agea gedc|â€Gâ€efed cBAB|â€Emâ€cBAG EDEG|â€Amâ€A3AA4:|
â€œAmâ€a2z2â€³Gâ€g2z2|â€Amâ€a2z2â€³Gâ€g2z2|â€Amâ€a2g2edc2|â€Emâ€e3ee2eg|â€Amâ€agea gedc|
â€œGâ€efed cBAB|â€Emâ€cBAG EDEG|â€Amâ€A3AA4:|

